X: 8807
T: Cudgell, The
R: slip jig
M: 9/8
K: Gmajor
|:GBd gdc BAB|GBd gdB cBA|GBd gaf gdB|cdc AFA c2A:|
|:ded BGG BGB|ded BGG c2A|ded BGG BGB|cdc AFA c2A|
ded BGG BGB|ded BGB cBA|GBd gaf gdB|cdc AFA c2A:|

